packages/core/assets/Icons/arrow_alt_up_left.svg

<svg viewBox="0 0 20 20" fill="none" xmlns="http://www.w3.org/2000/svg">
<path d="M5.83329 7.00002V11.6667C5.83329 11.9028 5.75343 12.1007 5.59371 12.2604C5.43399 12.4202 5.23607 12.5 4.99996 12.5C4.76385 12.5 4.56593 12.4202 4.40621 12.2604C4.24649 12.1007 4.16663 11.9028 4.16663 11.6667V5.00002C4.16663 4.76391 4.24649 4.56599 4.40621 4.40627C4.56593 4.24655 4.76385 4.16669 4.99996 4.16669H11.6666C11.9027 4.16669 12.1007 4.24655 12.2604 4.40627C12.4201 4.56599 12.5 4.76391 12.5 5.00002C12.5 5.23613 12.4201 5.43405 12.2604 5.59377C12.1007 5.75349 11.9027 5.83335 11.6666 5.83335H6.99996L16.0833 14.9167C16.2361 15.0695 16.3125 15.2639 16.3125 15.5C16.3125 15.7361 16.2361 15.9306 16.0833 16.0834C15.9305 16.2361 15.7361 16.3125 15.5 16.3125C15.2638 16.3125 15.0694 16.2361 14.9166 16.0834L5.83329 7.00002Z" fill="currentColor"/>
</svg>

<svg xmlns="http://www.w3.org/2000/svg" width="20" height="20" fill="none" viewBox="0 0 20 20">
  <path fill="#201F1F" d="M5.833 7v4.667c0 .236-.08.434-.24.593A.806.806 0 0 1 5 12.5a.806.806 0 0 1-.594-.24.806.806 0 0 1-.24-.593V5c0-.236.08-.434.24-.594.16-.16.358-.24.594-.24h6.667c.236 0 .434.08.593.24.16.16.24.358.24.594s-.08.434-.24.594a.806.806 0 0 1-.593.24H7l9.083 9.083a.79.79 0 0 1 .23.583.79.79 0 0 1-.23.583.79.79 0 0 1-.583.23.79.79 0 0 1-.583-.23L5.833 7Z"/>
</svg>
